X:537
T:Ambrose Moloneys
R:Reel
S:
H:
N:
D:Paddy Carty & Conor Tully (Session Tape)
Z:Adrian Scahill
M:4/4
L:1/8
K:G
B3G ABGE|DGBG A3c|BGG2 A2ef|gedB eAA2|\
(3Bcd BG (3ABc GE|DGBG ABAc|BGG2 A2ef|gedc BGG2:||\
dgbg agef|gedB GABd|eaag agef|gabg ageg|\
dgbg agef|gedB GA (3Bcd|eaag egfa|gedc BGG2:||


